svg/s/MV.svg

<svg width="16" height="12" viewBox="0 0 16 12" fill="none" xmlns="http://www.w3.org/2000/svg">
<mask id="mask0" mask-type="alpha" maskUnits="userSpaceOnUse" x="0" y="0" width="16" height="12">
<rect width="16" height="12" fill="white"/>
</mask>
<g mask="url(#mask0)">
<path fill-rule="evenodd" clip-rule="evenodd" d="M0 0H16V11C16 11.5523 15.5523 12 15 12H1C0.447715 12 0 11.5523 0 11V0Z" fill="#C51918"/>
<path fill-rule="evenodd" clip-rule="evenodd" d="M0 0H16V12H0V0Z" fill="#C51918"/>
<path fill-rule="evenodd" clip-rule="evenodd" d="M3 3H13V9H3V3Z" fill="#579D20"/>
<path d="M3.5 3.5H12.5V8.5H3.5V3.5Z" stroke="#B6EB9A" stroke-opacity="0.238111"/>
<mask id="mask1" mask-type="alpha" maskUnits="userSpaceOnUse" x="3" y="3" width="10" height="6">
<path fill-rule="evenodd" clip-rule="evenodd" d="M3 3H13V9H3V3Z" fill="white"/>
<path d="M3.5 3.5H12.5V8.5H3.5V3.5Z" stroke="white"/>
</mask>
<g mask="url(#mask1)">
<path fill-rule="evenodd" clip-rule="evenodd" d="M8.01649 6.2312C8.00799 7.76405 9.21472 8.58132 9.21472 8.58132C7.83776 8.743 6.92163 7.49471 6.92163 6.24614C6.92163 4.99758 8.17043 3.96621 9.21472 3.50049C9.21472 3.50049 8.02498 4.69836 8.01649 6.2312Z" fill="#F9FAFA"/>
</g>
</g>
</svg>

<svg width="16" height="12" fill="none" xmlns="http://www.w3.org/2000/svg">
  <mask id="a" maskUnits="userSpaceOnUse" x="0" y="0" width="16" height="12">
    <path fill="#fff" d="M0 0h16v12H0z"/>
  </mask>
  <g mask="url(#a)">
    <path fill-rule="evenodd" clip-rule="evenodd" d="M0 0h16v11a1 1 0 01-1 1H1a1 1 0 01-1-1V0z" fill="#C51918"/>
    <path fill-rule="evenodd" clip-rule="evenodd" d="M0 0h16v12H0V0z" fill="#C51918"/>
    <path fill-rule="evenodd" clip-rule="evenodd" d="M3 3h10v6H3V3z" fill="#579D20"/>
    <path d="M3.5 3.5h9v5h-9v-5z" stroke="#B6EB9A" stroke-opacity=".238"/>
    <mask id="b" maskUnits="userSpaceOnUse" x="3" y="3" width="10" height="6">
      <path fill-rule="evenodd" clip-rule="evenodd" d="M3 3h10v6H3V3z" fill="#fff"/>
      <path d="M3.5 3.5h9v5h-9v-5z" stroke="#fff"/>
    </mask>
    <g mask="url(#b)">
      <path fill-rule="evenodd" clip-rule="evenodd" d="M8.016 6.231c-.008 1.533 1.199 2.35 1.199 2.35-1.377.162-2.293-1.086-2.293-2.335 0-1.248 1.248-2.28 2.293-2.745 0 0-1.19 1.197-1.199 2.73z" fill="#F9FAFA"/>
    </g>
  </g>
</svg>
